images_elementary_svg/sc/res/nc01.svg

<svg viewBox="0 0 16 16" xmlns="http://www.w3.org/2000/svg" xmlns:xlink="http://www.w3.org/1999/xlink"><linearGradient id="a" gradientTransform="matrix(.67880146 0 0 .73786273 -2.234164 -2.56176)" gradientUnits="userSpaceOnUse" x1="24" x2="23.915924" y1="5" y2="22.445583"><stop offset="0" stop-color="#fff"/><stop offset=".063" stop-color="#fff" stop-opacity=".235"/><stop offset=".951" stop-color="#fff" stop-opacity=".157"/><stop offset="1" stop-color="#fff" stop-opacity=".392"/></linearGradient><linearGradient id="b" gradientTransform="matrix(.59436 0 0 .5999 -19.265 1.967)" gradientUnits="userSpaceOnUse" x1="25.132" x2="25.132" y1="15.5" y2="48.396"><stop offset="0" stop-color="#fafafa"/><stop offset="1" stop-color="#e2e1de"/></linearGradient><rect fill="url(#b)" height="14" rx=".424" ry=".491" width="14" x="1" y="1"/><path d="m.498.002c-.276 0-.5.224-.5.5l.002 14.998c0 .276.224.5.5.5h15c.276 0 .5-.224.5-.5l-.002-11.5h.002v-1h-.002v-2.498c0-.276-.224-.5-.5-.5zm.498.998h14.004v2h-4.002v-1.998h-1v1.998h-4v-1.998h-1v1.998h-4.002zm0 3h4.004v3h-4v1h4v3h-4v1h4v3h1v-3h4v3h1v-3h4v-1h-4v-3h4v3l.002 4.002h-14.004zm5.004 0h4v3h-4zm5 0h4v3h-4zm-5 4h4v3h-4z" fill="#030303" opacity=".32"/><path d="m1.5 1.5000004h13l-.000001 12.9999996h-12.999999z" fill="none" stroke="url(#a)" stroke-linecap="round" stroke-linejoin="round" stroke-width="1.012911"/></svg>

<?xml version="1.0" encoding="UTF-8" standalone="no"?>
<svg
   xmlns:dc="http://purl.org/dc/elements/1.1/"
   xmlns:cc="http://creativecommons.org/ns#"
   xmlns:rdf="http://www.w3.org/1999/02/22-rdf-syntax-ns#"
   xmlns:svg="http://www.w3.org/2000/svg"
   xmlns="http://www.w3.org/2000/svg"
   xmlns:sodipodi="http://sodipodi.sourceforge.net/DTD/sodipodi-0.dtd"
   xmlns:inkscape="http://www.inkscape.org/namespaces/inkscape"
   viewBox="0 0 16 16"
   version="1.1"
   id="svg35"
   sodipodi:docname="nc01.svg"
   inkscape:version="0.92.3 (unknown)"
   inkscape:export-filename="/home/rizmut/Dokumen/Rizmut/Github/libreoffice-style-elementary/images_elementary/sc/res/nc01.png"
   inkscape:export-xdpi="96"
   inkscape:export-ydpi="96">
  <metadata
     id="metadata41">
    <rdf:RDF>
      <cc:Work
         rdf:about="">
        <dc:format>image/svg+xml</dc:format>
        <dc:type
           rdf:resource="http://purl.org/dc/dcmitype/StillImage" />
        <dc:title></dc:title>
      </cc:Work>
    </rdf:RDF>
  </metadata>
  <defs
     id="defs39" />
  <sodipodi:namedview
     pagecolor="#ffffff"
     bordercolor="#666666"
     borderopacity="1"
     objecttolerance="10"
     gridtolerance="10"
     guidetolerance="10"
     inkscape:pageopacity="0"
     inkscape:pageshadow="2"
     inkscape:window-width="1366"
     inkscape:window-height="706"
     id="namedview37"
     showgrid="true"
     inkscape:zoom="20.85965"
     inkscape:cx="4.6881662"
     inkscape:cy="8.7086287"
     inkscape:window-x="0"
     inkscape:window-y="0"
     inkscape:window-maximized="1"
     inkscape:current-layer="svg35">
    <inkscape:grid
       type="xygrid"
       id="grid848"
       spacingx="0.5"
       spacingy="0.5"
       empspacing="2" />
  </sodipodi:namedview>
  <linearGradient
     id="a"
     gradientTransform="matrix(.67880146 0 0 .73786273 -2.234164 -2.56176)"
     gradientUnits="userSpaceOnUse"
     x1="24"
     x2="23.915924"
     y1="5"
     y2="22.445583">
    <stop
       offset="0"
       stop-color="#fff"
       id="stop2" />
    <stop
       offset=".063"
       stop-color="#fff"
       stop-opacity=".235"
       id="stop4" />
    <stop
       offset=".951"
       stop-color="#fff"
       stop-opacity=".157"
       id="stop6" />
    <stop
       offset="1"
       stop-color="#fff"
       stop-opacity=".392"
       id="stop8" />
  </linearGradient>
  <linearGradient
     id="b"
     gradientTransform="matrix(.59436 0 0 .5999 -19.265 1.967)"
     gradientUnits="userSpaceOnUse"
     x1="25.132"
     x2="25.132"
     y1="15.5"
     y2="48.396">
    <stop
       offset="0"
       stop-color="#fafafa"
       id="stop11" />
    <stop
       offset="1"
       stop-color="#e2e1de"
       id="stop13" />
  </linearGradient>
  <linearGradient
     id="c"
     gradientTransform="matrix(.94103 0 0 1.027 .46 -2.56)"
     gradientUnits="userSpaceOnUse"
     x1="7"
     x2="7"
     y1="-4"
     y2="17">
    <stop
       offset="0"
       stop-color="#cdf87e"
       id="stop16" />
    <stop
       offset=".262"
       stop-color="#a2e34f"
       id="stop18" />
    <stop
       offset=".661"
       stop-color="#68b723"
       id="stop20" />
    <stop
       offset="1"
       stop-color="#1d7e0d"
       id="stop22" />
  </linearGradient>
  <rect
     fill="url(#b)"
     height="14"
     rx=".424"
     ry=".491"
     width="14"
     x="1"
     y="1"
     id="rect25" />
  <path
     d="m 0.498,0.002 c -0.276,0 -0.5,0.224 -0.5,0.5 L 0,15.5 C 0,15.776 0.224,16 0.5,16 h 15 C 15.776,16 16,15.776 16,15.5 L 15.998,4 H 16 V 3 H 15.998 V 0.502 c 0,-0.276 -0.224,-0.5 -0.5,-0.5 z M 0.996,1 H 15 V 3 H 10.998 V 1.002 h -1 V 3 h -4 V 1.002 h -1 V 3 H 0.996 Z m 0,3 H 5 V 7 H 1 v 1 h 4 v 3 H 1 v 1 h 4 v 3 h 1 v -3 h 4 v 3 h 1 v -3 h 4 V 11 H 11 V 8 h 4 v 3 l 0.002,4.002 H 0.998 Z M 6,4 h 4 V 7 H 6 Z m 5,0 h 4 V 7 H 11 Z M 6,8 h 4 v 3 H 6 Z"
     id="path29"
     inkscape:connector-curvature="0"
     style="opacity:0.32000002;fill:#030303"
     sodipodi:nodetypes="sccsscccccssscccccccccccccccccccccccccccccccccccccccccccccccccccccc" />
  <path
     d="m1.5 1.5000004h13l-.000001 12.9999996h-12.999999z"
     fill="none"
     stroke="url(#a)"
     stroke-linecap="round"
     stroke-linejoin="round"
     stroke-width="1.012911"
     id="path31" />
</svg>
